api/fonts/FontSpark Logo.svg

<svg width="149" height="26" viewBox="0 0 149 26" fill="none" xmlns="http://www.w3.org/2000/svg">
<path d="M3.95503 2.88892H12.6561C14.8404 2.88892 16.6111 4.65964 16.6111 6.84394V15.545C16.6111 17.7293 14.8404 19.5 12.6561 19.5H3.95503C1.77073 19.5 0 17.7293 0 15.545V6.84394C0 4.65964 1.77073 2.88892 3.95503 2.88892Z" fill="#FAC950"/>
<path d="M23.8333 1.248H35.7153V4.212H27.1093V9.048H35.2213V12.012H27.1093V19.656H23.8333V1.248ZM37.8473 13.416C37.8473 12.428 38.025 11.531 38.3803 10.725C38.7357 9.919 39.2167 9.23 39.8233 8.658C40.43 8.086 41.1493 7.644 41.9813 7.332C42.8133 7.02 43.6973 6.864 44.6333 6.864C45.5693 6.864 46.4533 7.02 47.2853 7.332C48.1173 7.644 48.8367 8.086 49.4433 8.658C50.05 9.23 50.531 9.919 50.8863 10.725C51.2417 11.531 51.4193 12.428 51.4193 13.416C51.4193 14.404 51.2417 15.301 50.8863 16.107C50.531 16.913 50.05 17.602 49.4433 18.174C48.8367 18.746 48.1173 19.188 47.2853 19.5C46.4533 19.812 45.5693 19.968 44.6333 19.968C43.6973 19.968 42.8133 19.812 41.9813 19.5C41.1493 19.188 40.43 18.746 39.8233 18.174C39.2167 17.602 38.7357 16.913 38.3803 16.107C38.025 15.301 37.8473 14.404 37.8473 13.416ZM40.9673 13.416C40.9673 13.9013 41.0497 14.3693 41.2143 14.82C41.379 15.2707 41.6217 15.6693 41.9423 16.016C42.263 16.3627 42.6487 16.64 43.0993 16.848C43.55 17.056 44.0613 17.16 44.6333 17.16C45.2053 17.16 45.7167 17.056 46.1673 16.848C46.618 16.64 47.0037 16.3627 47.3243 16.016C47.645 15.6693 47.8877 15.2707 48.0523 14.82C48.217 14.3693 48.2993 13.9013 48.2993 13.416C48.2993 12.9307 48.217 12.4627 48.0523 12.012C47.8877 11.5613 47.645 11.1627 47.3243 10.816C47.0037 10.4693 46.618 10.192 46.1673 9.984C45.7167 9.776 45.2053 9.672 44.6333 9.672C44.0613 9.672 43.55 9.776 43.0993 9.984C42.6487 10.192 42.263 10.4693 41.9423 10.816C41.6217 11.1627 41.379 11.5613 41.2143 12.012C41.0497 12.4627 40.9673 12.9307 40.9673 13.416ZM54.3313 7.176H57.2953V9.178H57.3473C57.642 8.554 58.0927 8.01234 58.6993 7.553C59.306 7.09366 60.1293 6.864 61.1693 6.864C62.0013 6.864 62.7077 7.00267 63.2883 7.28C63.869 7.55734 64.3413 7.92133 64.7053 8.372C65.0693 8.82267 65.3293 9.34266 65.4853 9.932C65.6413 10.5213 65.7193 11.1367 65.7193 11.778V19.656H62.5993V13.338C62.5993 12.9913 62.582 12.6057 62.5473 12.181C62.5127 11.7563 62.4217 11.3577 62.2743 10.985C62.127 10.6123 61.8973 10.3003 61.5853 10.049C61.2733 9.79767 60.8487 9.672 60.3113 9.672C59.7913 9.672 59.3537 9.75867 58.9983 9.932C58.643 10.1053 58.3483 10.3393 58.1143 10.634C57.8803 10.9287 57.7113 11.2667 57.6073 11.648C57.5033 12.0293 57.4513 12.428 57.4513 12.844V19.656H54.3313V7.176ZM67.7993 9.828V7.176H70.3733V3.562H73.4933V7.176H76.9253V9.828H73.4933V15.288C73.4933 15.912 73.6103 16.406 73.8443 16.77C74.0783 17.134 74.542 17.316 75.2353 17.316C75.5127 17.316 75.816 17.2857 76.1453 17.225C76.4747 17.1643 76.7347 17.0647 76.9253 16.926V19.552C76.596 19.708 76.193 19.8163 75.7163 19.877C75.2397 19.9377 74.8193 19.968 74.4553 19.968C73.6233 19.968 72.943 19.877 72.4143 19.695C71.8857 19.513 71.4697 19.2357 71.1663 18.863C70.863 18.4903 70.655 18.0267 70.5423 17.472C70.4297 16.9173 70.3733 16.276 70.3733 15.548V9.828H67.7993ZM89.0384 5.2C88.6918 4.69733 88.2281 4.329 87.6474 4.095C87.0668 3.861 86.4558 3.744 85.8144 3.744C85.4331 3.744 85.0648 3.78733 84.7094 3.874C84.3541 3.96067 84.0334 4.09933 83.7474 4.29C83.4614 4.48067 83.2318 4.72767 83.0584 5.031C82.8851 5.33433 82.7984 5.694 82.7984 6.11C82.7984 6.734 83.0151 7.21066 83.4484 7.54C83.8818 7.86933 84.4191 8.15533 85.0604 8.398C85.7018 8.64067 86.4038 8.87467 87.1664 9.1C87.9291 9.32533 88.6311 9.63733 89.2724 10.036C89.9138 10.4347 90.4511 10.9633 90.8844 11.622C91.3178 12.2807 91.5344 13.156 91.5344 14.248C91.5344 15.236 91.3524 16.0983 90.9884 16.835C90.6244 17.5717 90.1348 18.1827 89.5194 18.668C88.9041 19.1533 88.1891 19.5173 87.3744 19.76C86.5598 20.0027 85.7018 20.124 84.8004 20.124C83.6564 20.124 82.5558 19.9333 81.4984 19.552C80.4411 19.1707 79.5311 18.5293 78.7684 17.628L81.2384 15.236C81.6371 15.8427 82.1614 16.315 82.8114 16.653C83.4614 16.991 84.1504 17.16 84.8784 17.16C85.2598 17.16 85.6411 17.108 86.0224 17.004C86.4038 16.9 86.7504 16.744 87.0624 16.536C87.3744 16.328 87.6258 16.0637 87.8164 15.743C88.0071 15.4223 88.1024 15.054 88.1024 14.638C88.1024 13.962 87.8858 13.442 87.4524 13.078C87.0191 12.714 86.4818 12.4063 85.8404 12.155C85.1991 11.9037 84.4971 11.6653 83.7344 11.44C82.9718 11.2147 82.2698 10.907 81.6284 10.517C80.9871 10.127 80.4498 9.607 80.0164 8.957C79.5831 8.307 79.3664 7.43601 79.3664 6.344C79.3664 5.39066 79.5614 4.56734 79.9514 3.874C80.3414 3.18066 80.8528 2.60434 81.4854 2.145C82.1181 1.68566 82.8418 1.34333 83.6564 1.118C84.4711 0.892666 85.3031 0.78 86.1524 0.78C87.1231 0.78 88.0634 0.927332 88.9734 1.222C89.8834 1.51667 90.7024 2.002 91.4304 2.678L89.0384 5.2ZM94.6544 7.176H97.6184V9.048H97.6704C98.1211 8.28533 98.7278 7.73067 99.4904 7.384C100.253 7.03733 101.076 6.864 101.96 6.864C102.914 6.864 103.772 7.033 104.534 7.371C105.297 7.709 105.947 8.17266 106.484 8.762C107.022 9.35134 107.429 10.0447 107.706 10.842C107.984 11.6393 108.122 12.4973 108.122 13.416C108.122 14.3347 107.975 15.1927 107.68 15.99C107.386 16.7873 106.974 17.4807 106.445 18.07C105.917 18.6593 105.28 19.123 104.534 19.461C103.789 19.799 102.974 19.968 102.09 19.968C101.501 19.968 100.981 19.9073 100.53 19.786C100.08 19.6647 99.6811 19.5087 99.3344 19.318C98.9878 19.1273 98.6931 18.9237 98.4504 18.707C98.2078 18.4903 98.0084 18.278 97.8524 18.07H97.7744V25.584H94.6544V7.176ZM105.002 13.416C105.002 12.9307 104.92 12.4627 104.755 12.012C104.591 11.5613 104.348 11.1627 104.027 10.816C103.707 10.4693 103.321 10.192 102.87 9.984C102.42 9.776 101.908 9.672 101.336 9.672C100.764 9.672 100.253 9.776 99.8024 9.984C99.3518 10.192 98.9661 10.4693 98.6454 10.816C98.3248 11.1627 98.0821 11.5613 97.9174 12.012C97.7528 12.4627 97.6704 12.9307 97.6704 13.416C97.6704 13.9013 97.7528 14.3693 97.9174 14.82C98.0821 15.2707 98.3248 15.6693 98.6454 16.016C98.9661 16.3627 99.3518 16.64 99.8024 16.848C100.253 17.056 100.764 17.16 101.336 17.16C101.908 17.16 102.42 17.056 102.87 16.848C103.321 16.64 103.707 16.3627 104.027 16.016C104.348 15.6693 104.591 15.2707 104.755 14.82C104.92 14.3693 105.002 13.9013 105.002 13.416ZM118.834 17.94H118.756C118.306 18.6507 117.734 19.1663 117.04 19.487C116.347 19.8077 115.584 19.968 114.752 19.968C114.18 19.968 113.621 19.89 113.075 19.734C112.529 19.578 112.044 19.344 111.619 19.032C111.195 18.72 110.852 18.33 110.592 17.862C110.332 17.394 110.202 16.848 110.202 16.224C110.202 15.548 110.324 14.9717 110.566 14.495C110.809 14.0183 111.134 13.6197 111.541 13.299C111.949 12.9783 112.421 12.7227 112.958 12.532C113.496 12.3413 114.055 12.1983 114.635 12.103C115.216 12.0077 115.801 11.947 116.39 11.921C116.98 11.895 117.534 11.882 118.054 11.882H118.834V11.544C118.834 10.764 118.566 10.179 118.028 9.789C117.491 9.399 116.806 9.204 115.974 9.204C115.316 9.204 114.7 9.321 114.128 9.555C113.556 9.789 113.062 10.1053 112.646 10.504L111.008 8.866C111.702 8.15533 112.512 7.644 113.439 7.332C114.367 7.02 115.324 6.864 116.312 6.864C117.196 6.864 117.942 6.96367 118.548 7.163C119.155 7.36233 119.658 7.618 120.056 7.93C120.455 8.242 120.763 8.60166 120.979 9.009C121.196 9.41634 121.352 9.828 121.447 10.244C121.543 10.66 121.599 11.063 121.616 11.453C121.634 11.843 121.642 12.1853 121.642 12.48V19.656H118.834V17.94ZM118.652 14.066H118.002C117.569 14.066 117.084 14.0833 116.546 14.118C116.009 14.1527 115.502 14.235 115.025 14.365C114.549 14.495 114.146 14.6857 113.816 14.937C113.487 15.1883 113.322 15.5393 113.322 15.99C113.322 16.2847 113.387 16.5317 113.517 16.731C113.647 16.9303 113.816 17.0993 114.024 17.238C114.232 17.3767 114.466 17.4763 114.726 17.537C114.986 17.5977 115.246 17.628 115.506 17.628C116.581 17.628 117.374 17.3723 117.885 16.861C118.397 16.3497 118.652 15.652 118.652 14.768V14.066ZM124.996 7.176H128.116V9.152H128.168C128.515 8.424 129.009 7.86067 129.65 7.462C130.292 7.06333 131.028 6.864 131.86 6.864C132.051 6.864 132.237 6.88133 132.419 6.916C132.601 6.95067 132.788 6.994 132.978 7.046V10.062C132.718 9.99267 132.463 9.93633 132.211 9.893C131.96 9.84967 131.713 9.828 131.47 9.828C130.742 9.828 130.157 9.96233 129.715 10.231C129.273 10.4997 128.935 10.8073 128.701 11.154C128.467 11.5007 128.311 11.8473 128.233 12.194C128.155 12.5407 128.116 12.8007 128.116 12.974V19.656H124.996V7.176ZM135.11 0H138.23V12.35L143.04 7.176H147.044L141.688 12.844L147.382 19.656H143.248L138.282 13.286H138.23V19.656H135.11V0Z" fill="#383B3F"/>
</svg>

<svg width="149" height="26" fill="none" xmlns="http://www.w3.org/2000/svg"><path d="M3.955 2.889h8.701a3.955 3.955 0 0 1 3.955 3.955v8.701a3.955 3.955 0 0 1-3.955 3.955H3.955A3.955 3.955 0 0 1 0 15.545V6.844a3.955 3.955 0 0 1 3.955-3.955z" fill="#FAC950"/><path d="M23.833 1.248h11.882v2.964H27.11v4.836h8.112v2.964H27.11v7.644h-3.276V1.248zm14.014 12.168c0-.988.178-1.885.533-2.691a6.294 6.294 0 0 1 1.443-2.067 6.361 6.361 0 0 1 2.158-1.326 7.49 7.49 0 0 1 2.652-.468c.936 0 1.82.156 2.652.468a6.36 6.36 0 0 1 2.158 1.326 6.291 6.291 0 0 1 1.443 2.067c.356.806.533 1.703.533 2.691 0 .988-.177 1.885-.533 2.691a6.291 6.291 0 0 1-1.443 2.067 6.36 6.36 0 0 1-2.158 1.326 7.49 7.49 0 0 1-2.652.468 7.49 7.49 0 0 1-2.652-.468 6.361 6.361 0 0 1-2.158-1.326 6.294 6.294 0 0 1-1.443-2.067c-.355-.806-.533-1.703-.533-2.691zm3.12 0c0 .485.083.953.247 1.404.165.45.408.85.728 1.196.321.347.707.624 1.157.832.451.208.962.312 1.534.312.572 0 1.084-.104 1.534-.312.451-.208.837-.485 1.157-.832.321-.347.564-.745.728-1.196.165-.45.247-.919.247-1.404 0-.485-.082-.953-.247-1.404a3.522 3.522 0 0 0-.728-1.196 3.625 3.625 0 0 0-1.157-.832c-.45-.208-.962-.312-1.534-.312-.572 0-1.083.104-1.534.312-.45.208-.836.485-1.157.832-.32.347-.563.745-.728 1.196-.164.45-.247.919-.247 1.404zm13.364-6.24h2.964v2.002h.052c.295-.624.746-1.166 1.352-1.625.607-.46 1.43-.689 2.47-.689.832 0 1.539.139 2.12.416.58.277 1.052.641 1.416 1.092.364.45.624.97.78 1.56.156.59.234 1.205.234 1.846v7.878H62.6v-6.318c0-.347-.017-.732-.052-1.157a4.15 4.15 0 0 0-.273-1.196 2.239 2.239 0 0 0-.689-.936c-.312-.251-.736-.377-1.274-.377-.52 0-.957.087-1.313.26-.355.173-.65.407-.884.702a2.793 2.793 0 0 0-.507 1.014c-.104.381-.156.78-.156 1.196v6.812h-3.12V7.176zM67.8 9.828V7.176h2.574V3.562h3.12v3.614h3.432v2.652h-3.432v5.46c0 .624.117 1.118.351 1.482.234.364.698.546 1.391.546.278 0 .581-.03.91-.091.33-.06.59-.16.78-.299v2.626c-.329.156-.732.264-1.209.325-.476.06-.897.091-1.26.091-.833 0-1.513-.091-2.042-.273-.528-.182-.944-.46-1.248-.832-.303-.373-.511-.836-.624-1.391a9.75 9.75 0 0 1-.169-1.924v-5.72H67.8zM89.04 5.2a3.022 3.022 0 0 0-1.392-1.105 4.857 4.857 0 0 0-1.833-.351c-.38 0-.75.043-1.105.13a3 3 0 0 0-.962.416c-.286.19-.515.438-.689.741-.173.303-.26.663-.26 1.079 0 .624.217 1.1.65 1.43.434.33.971.615 1.612.858.642.243 1.344.477 2.106.702a8.561 8.561 0 0 1 2.106.936 5.207 5.207 0 0 1 1.612 1.586c.434.659.65 1.534.65 2.626 0 .988-.182 1.85-.546 2.587a5.27 5.27 0 0 1-1.469 1.833c-.615.485-1.33.85-2.145 1.092a8.968 8.968 0 0 1-2.574.364 9.66 9.66 0 0 1-3.302-.572c-1.057-.381-1.967-1.023-2.73-1.924l2.47-2.392a4.13 4.13 0 0 0 1.573 1.417 4.418 4.418 0 0 0 3.211.351c.382-.104.728-.26 1.04-.468a2.44 2.44 0 0 0 .754-.793c.191-.32.286-.689.286-1.105 0-.676-.216-1.196-.65-1.56-.433-.364-.97-.672-1.612-.923a25.884 25.884 0 0 0-2.106-.715 8.87 8.87 0 0 1-2.106-.923 5.123 5.123 0 0 1-1.612-1.56c-.433-.65-.65-1.521-.65-2.613 0-.953.195-1.777.585-2.47.39-.693.902-1.27 1.534-1.729a6.697 6.697 0 0 1 2.171-1.027 9.32 9.32 0 0 1 5.317.104c.91.295 1.73.78 2.457 1.456L89.038 5.2zm5.615 1.976h2.964v1.872h.052c.451-.763 1.058-1.317 1.82-1.664a5.896 5.896 0 0 1 2.47-.52c.954 0 1.812.169 2.574.507a5.756 5.756 0 0 1 1.95 1.391c.538.59.945 1.283 1.222 2.08.278.797.416 1.655.416 2.574a7.36 7.36 0 0 1-.442 2.574 6.383 6.383 0 0 1-1.235 2.08 5.68 5.68 0 0 1-1.911 1.391 5.847 5.847 0 0 1-2.444.507 6.03 6.03 0 0 1-1.56-.182 5.383 5.383 0 0 1-1.196-.468 4.787 4.787 0 0 1-.884-.611 4.447 4.447 0 0 1-.598-.637h-.078v7.514h-3.12V7.176zm10.348 6.24c0-.485-.082-.953-.247-1.404a3.508 3.508 0 0 0-.728-1.196 3.615 3.615 0 0 0-1.157-.832c-.45-.208-.962-.312-1.534-.312-.572 0-1.083.104-1.534.312-.45.208-.836.485-1.157.832-.32.347-.563.745-.728 1.196-.164.45-.247.919-.247 1.404 0 .485.083.953.247 1.404.165.45.408.85.728 1.196.321.347.707.624 1.157.832.451.208.962.312 1.534.312.572 0 1.084-.104 1.534-.312a3.615 3.615 0 0 0 1.157-.832c.321-.347.564-.745.728-1.196.165-.45.247-.919.247-1.404zm13.832 4.524h-.078c-.45.71-1.022 1.226-1.716 1.547a5.383 5.383 0 0 1-2.288.481 6.075 6.075 0 0 1-1.677-.234 4.545 4.545 0 0 1-1.456-.702 3.614 3.614 0 0 1-1.027-1.17c-.26-.468-.39-1.014-.39-1.638 0-.676.122-1.252.364-1.729.243-.477.568-.875.975-1.196.408-.32.88-.576 1.417-.767a9.732 9.732 0 0 1 1.677-.429 14.89 14.89 0 0 1 1.755-.182c.59-.026 1.144-.039 1.664-.039h.78v-.338c0-.78-.268-1.365-.806-1.755-.537-.39-1.222-.585-2.054-.585a4.83 4.83 0 0 0-1.846.351 4.673 4.673 0 0 0-1.482.949l-1.638-1.638a6.055 6.055 0 0 1 2.431-1.534 8.953 8.953 0 0 1 2.873-.468c.884 0 1.63.1 2.236.299.607.2 1.11.455 1.508.767.399.312.707.672.923 1.079.217.407.373.819.468 1.235.096.416.152.819.169 1.209.018.39.026.732.026 1.027v7.176h-2.808V17.94zm-.182-3.874h-.65c-.433 0-.918.017-1.456.052a7.65 7.65 0 0 0-1.521.247 3.49 3.49 0 0 0-1.209.572c-.329.251-.494.602-.494 1.053 0 .295.065.542.195.741.13.2.299.368.507.507.208.139.442.238.702.299.26.06.52.091.78.091 1.075 0 1.868-.256 2.379-.767.512-.511.767-1.209.767-2.093v-.702zm6.344-6.89h3.12v1.976h.052c.347-.728.841-1.291 1.482-1.69.642-.399 1.378-.598 2.21-.598.191 0 .377.017.559.052.182.035.369.078.559.13v3.016a8.69 8.69 0 0 0-.767-.169 4.35 4.35 0 0 0-.741-.065c-.728 0-1.313.134-1.755.403-.442.269-.78.576-1.014.923-.234.347-.39.693-.468 1.04-.078.347-.117.607-.117.78v6.682h-3.12V7.176zM135.11 0h3.12v12.35l4.81-5.174h4.004l-5.356 5.668 5.694 6.812h-4.134l-4.966-6.37h-.052v6.37h-3.12V0z" fill="#383B3F"/></svg>
